X: 15414
T: Glen Allen
R: reel
M: 4/4
K: Dmajor
|:D2 FD ADFD|D2 FD EDBD|E2 GE BEGE|EFGA BAFE|
D2 FD ADFD|D2 FD EDBD|GFGA BcdB|AFEF D2:|
|:d2 Ad BdAB|d2 fd edBd|e2 Bd edBd|e2 fd edBc|
d2 Ad BdAB|d2 fd edBA|GFGA BcdB|AFEF D2:|

